X: 32283
T: Pig Ankle Rag
R: hornpipe
M: 4/4
K: Dmajor
(af|:"A" ge)(cAA2) af|(ge)(cA A)A(BA)|"D"(dA)BA (dA)BA|dcBAA2 af|
"A"(ge)(cAA2) af|(ge)(cA A)ABA|"D" dABA (dA)BA|(dA)(Bd d)(Bd)(A|
"G"B4) d2>e2|"D"(f a2)(a ba)fd|"A"(Ac)ea fdec|1 d2 (a2>^g2) af:|2 d6 (dB||
|:"A"AB)cA BcAB|(cA)BA cBAF|"D"D2 dA (Bd)AB|(dA)Bd dBAF|
"A"(AB)cA (Bc)AB|(cA)BA cBAF|"D"D2 dA (Bd)AB|(dA)Bd dBd(A|
"G"B4) d2>e2|"D"(f a2) (a ba)fd|"A"(Ac)ea fdec|1 "D"d2 [d4f4] (cB:|2 "D"d6||

